X:119
T:Montagne Ste Genevieve
C:Django Reinhardt
N:Arranged for Mandolin by Mike Stangeland
L:1/8
Q:1/4=160
M:3/4
K:G
z6 |: E"Em"B, G,B, EF | GB eg bd' | c'b bd' ^a^c' | ac' z2 [b2g2] | EB, G,B, EF | 
GB eg bc' | "Am6"b6 | "Am"ac' b2 a2 | "B7"ab c'f ga | ^de fA Bc | FG A^D EF | 
C4 CB, | A,C ^DF Ac | ^df ac' ba | "Em"ga ^ab e=f | "B7"fg B^c ^dB | "Em"EF G,B, EF | 
GB eg bd' | c'b bd' ^a^c' | a[c'a] z2 [b2g2] | (3E^G,B, (3D=F^G (3Bd=f | (3edc (3BA^G (3=FED | 
"Am"C4 B,2 | A,4 zA | AB Bc ce | e=f ^fg fe | g6 | ze fg f/g/f/e/ | ^A2 [g2e2A2] [ge]A | 
A2 [f4^d4A4] | E2 [e4B4G4E4] :| z2 dG dG |: (3def (3gab c'2 | (3def (3ga^a (3bc'^c' | 
(3d'bf eA, D2 | (3GBd (3gbc' (3^c'd'^d' | (3e'c'a (3ece (3ac'e' | (3d'c'a (3fd^c (3=cAF | 
(3GBd (3gbd' g'=f' | ^d'4 =d'2 | (3def (3gab c'2 | (3def (3ga^a (3bc'^c' | (3d'bf e2 A,D | 
(3GBd (3gbc' (3^c'd'^d' | (3e'c'a (3ece (3ac'e' | (3d'c'a (3fd^c (3=cAF | (3GBd (3gbd' (3f'd'b | 
g6 :| 


